assets/svg/home-o.svg

<?xml version="1.0" encoding="UTF-8"?>
<svg width="1000px" height="1000px" viewBox="0 0 1000 1000" version="1.1" xmlns="http://www.w3.org/2000/svg" xmlns:xlink="http://www.w3.org/1999/xlink">
    <!-- Generator: sketchtool 52.4 (67378) - http://www.bohemiancoding.com/sketch -->
    <title>home-o</title>
    <desc>Created with sketchtool.</desc>
    <g id="新版图标" stroke="none" stroke-width="1" fill="none" fill-rule="evenodd">
        <g id="home-o" fill="#323233" fill-rule="nonzero">
            <g id="圆角-首页">
                <path d="M240.740741,631.791896 L240.740741,792.022792 L759.259259,792.022792 L759.259259,631.796119 L499.969199,426.665803 L240.740741,631.791896 Z M200.521619,580.96491 L459.750078,375.838817 C483.317597,357.189965 516.613465,357.188207 540.182954,375.83457 L799.473014,580.964887 C815.011638,593.257849 824.074074,611.982847 824.074074,631.796119 L824.074074,792.022792 C824.074074,827.819026 795.055493,856.837607 759.259259,856.837607 L240.740741,856.837607 C204.944507,856.837607 175.925926,827.819026 175.925926,792.022792 L175.925926,631.791896 C175.925926,611.981025 184.986176,593.258023 200.521619,580.96491 Z" id="Rectangle-23"></path>
                <path d="M237.605555,213.204052 C219.816947,211.227184 206.998999,195.204099 208.975867,177.415491 C210.952735,159.626883 226.97582,146.808935 244.764428,148.785803 L710.904667,200.588498 C725.939095,202.259291 737.817822,214.108923 739.525479,229.139209 L791.903759,690.157027 C793.924245,707.940734 781.14563,723.995204 763.361923,726.01569 C745.578216,728.036176 729.523746,715.25756 727.50326,697.473854 L678.044243,262.150504 L237.605555,213.204052 Z" id="Rectangle-22" transform="translate(500.444300, 437.405233) rotate(-45.000000) translate(-500.444300, -437.405233) "></path>
            </g>
        </g>
    </g>
</svg>

<svg width="1000" height="1000" xmlns="http://www.w3.org/2000/svg"><g fill="#323233" fill-rule="nonzero"><path d="M240.74 631.792v160.23h518.52V631.797l-259.29-205.13-259.23 205.126zm-40.218-50.827L459.75 375.839c23.568-18.649 56.863-18.65 80.433-.004l259.29 205.13a64.815 64.815 0 0 1 24.601 50.831v160.227c0 35.796-29.019 64.815-64.815 64.815H240.741c-35.796 0-64.815-29.019-64.815-64.815V631.792c0-19.811 9.06-38.534 24.596-50.827z"/><path d="M156.055 464.726c-13.976 11.18-34.37 8.914-45.55-5.062-11.181-13.976-8.915-34.37 5.062-45.55l366.24-292.981c11.813-9.45 28.591-9.47 40.427-.05L885.26 410.035c14.003 11.146 16.32 31.534 5.174 45.538-11.147 14.003-31.535 16.32-45.538 5.174L502.103 187.899 156.055 464.726z"/></g></svg>
